icons/icn_x3.svg

<svg width="24" xmlns="http://www.w3.org/2000/svg" height="24" id="screenshot-07e9d773-d858-80af-8006-8f464123cace" viewBox="0 0 24 24" xmlns:xlink="http://www.w3.org/1999/xlink" fill="none" version="1.1"><g id="shape-07e9d773-d858-80af-8006-8f464123cace"><g class="frame-container-wrapper"><g class="frame-container-blur"><g class="frame-container-shadows"><g fill="none"><g class="fills" id="fills-07e9d773-d858-80af-8006-8f464123cace"><rect rx="0" ry="0" x="0" y="0" width="24" height="24.000000000000455" transform="matrix(1, 0, 0, 1, 0, 0)" class="frame-background"/></g><g class="frame-children"><g id="shape-07e9d773-d858-80af-8006-8f460b5fe314" rx="0" ry="0"><g id="shape-07e9d773-d858-80af-8006-8f45be774481" style="opacity: 1;"><g class="fills" id="fills-07e9d773-d858-80af-8006-8f45be774481"><path d="M3.55934739112854,7.888916015625C3.39137864112854,7.915283203125,3.23561692237854,7.99462890625,3.11574387550354,8.115478515625C2.96510910987854,8.265869140625,2.88039231300354,8.4698486328125,2.88039231300354,8.6824951171875C2.88039231300354,8.8956298828125,2.96510910987854,9.099609375,3.11574387550354,9.25L6.365255355834961,12.498046875L3.11574387550354,15.748291015625C2.80446457862854,16.0611572265625,2.80446457862854,16.5662841796875,3.11574387550354,16.8792724609375C3.26589035987854,17.030029296875,3.47096848487854,17.115478515625,3.68410325050354,17.115478515625C3.89699387550354,17.115478515625,4.101827621459961,17.030029296875,4.252218246459961,16.8792724609375L7.498556137084961,13.631103515625L10.748311996459961,16.8792724609375C11.061056137084961,17.190185546875,11.566915512084961,17.190185546875,11.879659652709961,16.8792724609375C12.190694808959961,16.5662841796875,12.190694808959961,16.0611572265625,11.879659652709961,15.748291015625L8.631612777709961,12.498046875L11.879659652709961,9.25C12.030050277709961,9.099609375,12.115011215209961,8.8956298828125,12.115011215209961,8.6824951171875C12.115011215209961,8.4698486328125,12.030050277709961,8.265869140625,11.879659652709961,8.115478515625C11.566915512084961,7.8045654296875,11.061056137084961,7.8045654296875,10.748311996459961,8.115478515625L7.498556137084961,11.3653564453125L4.252218246459961,8.115478515625C4.070577621459961,7.932861328125,3.81325364112854,7.848876953125,3.55934739112854,7.888916015625Z" style="display: inline; stroke-width: 0.424392; stroke-linecap: round; stroke-linejoin: bevel; fill: rgb(0, 0, 0); fill-opacity: 1;"/></g></g><g id="shape-07e9d773-d858-80af-8006-8f45be77f051" style="opacity: 1;"><g class="fills" id="fills-07e9d773-d858-80af-8006-8f45be77f051"><path d="M17.49831199645996,7.422119140625C16.92506980895996,7.422119140625,16.40773582458496,7.5341796875,15.948019027709961,7.759765625C15.492208480834961,7.981201171875,15.132345199584961,8.287109375,14.867696762084961,8.677978515625C14.602804183959961,9.0687255859375,14.471700668334961,9.5162353515625,14.471700668334961,10.0196533203125L16.04567527770996,10.0196533203125C16.04567527770996,9.7418212890625,16.11037254333496,9.5023193359375,16.24074363708496,9.302978515625C16.37062644958496,9.0986328125,16.54689598083496,8.9427490234375,16.76833152770996,8.8343505859375C16.99342918395996,8.72119140625,17.24635887145996,8.6663818359375,17.52419090270996,8.6663818359375C17.85353660583496,8.6663818359375,18.12575340270996,8.7249755859375,18.33888816833496,8.842041015625C18.55568504333496,8.9593505859375,18.71437644958496,9.125,18.81862449645996,9.3419189453125C18.92751121520996,9.554443359375,18.98293113708496,9.8118896484375,18.98293113708496,10.111328125C18.98293113708496,10.39794921875,18.92482566833496,10.651611328125,18.80763816833496,10.8731689453125C18.69045066833496,11.094482421875,18.50954246520996,11.2667236328125,18.26589012145996,11.392578125C18.02712059020996,11.5185546875,17.72609519958496,11.5821533203125,17.36183738708496,11.5821533203125L16.42409324645996,11.5821533203125L16.42409324645996,11.9476318359375L16.42409324645996,12.4552001953125L16.42409324645996,12.8067626953125L17.36183738708496,12.8067626953125C17.72243309020996,12.8067626953125,18.03420066833496,12.862060546875,18.29909324645996,12.974609375C18.56398582458496,13.0831298828125,18.76711082458496,13.2523193359375,18.91090965270996,13.4825439453125C19.05397605895996,13.712890625,19.12599754333496,14.01220703125,19.12599754333496,14.380859375C19.12599754333496,14.7066650390625,19.06032371520996,14.9847412109375,18.93044090270996,15.2149658203125C18.80397605895996,15.44482421875,18.62209129333496,15.6192626953125,18.38307762145996,15.736328125C18.14430809020996,15.853515625,17.85988426208496,15.912109375,17.52956199645996,15.912109375C17.21779441833496,15.912109375,16.94093894958496,15.850341796875,16.69728660583496,15.728515625C16.45924949645996,15.6072998046875,16.27199363708496,15.441162109375,16.13722801208496,15.2288818359375C16.00710105895996,15.011474609375,15.941671371459961,14.7606201171875,15.941671371459961,14.4786376953125L14.373800277709961,14.4786376953125C14.373800277709961,14.921142578125,14.457784652709961,15.31201171875,14.627706527709961,15.6505126953125C14.801046371459961,15.9844970703125,15.035421371459961,16.2646484375,15.330587387084961,16.490234375C15.625997543334961,16.7117919921875,15.959249496459961,16.879638671875,16.33278465270996,16.9921875C16.70558738708496,17.1053466796875,17.09694480895996,17.1624755859375,17.50465965270996,17.1624755859375C17.96047019958496,17.1624755859375,18.38234519958496,17.10009765625,18.76784324645996,16.9788818359375C19.15920066833496,16.8570556640625,19.49880027770996,16.678466796875,19.78932762145996,16.4395751953125C20.07985496520996,16.2010498046875,20.30348777770996,15.909423828125,20.45924949645996,15.5665283203125C20.61989402770996,15.21923828125,20.70216941833496,14.8238525390625,20.70216941833496,14.380859375C20.70216941833496,14.0556640625,20.64284324645996,13.7479248046875,20.52565574645996,13.4571533203125C20.41310691833496,13.1666259765625,20.23244285583496,12.9072265625,19.98488426208496,12.681640625C19.74953269958496,12.4635009765625,19.44801902770996,12.292724609375,19.08058738708496,12.1639404296875C19.36403465270996,12.0347900390625,19.60671043395996,11.8779296875,19.80885887145996,11.6934814453125C20.05592918395996,11.463623046875,20.24342918395996,11.20947265625,20.36989402770996,10.9317626953125C20.49538230895996,10.6539306640625,20.55690574645996,10.38037109375,20.55690574645996,10.111328125C20.55690574645996,9.5213623046875,20.43068504333496,9.0262451171875,20.17409324645996,8.6270751953125C19.91872215270996,8.2276611328125,19.56032371520996,7.9281005859375,19.10011863708496,7.7288818359375C18.64430809020996,7.5244140625,18.11086082458496,7.422119140625,17.49831199645996,7.422119140625Z" style="font-family: roboto; stroke-width: 1.73333; stroke-linejoin: round; font-weight: 500; white-space: pre; display: inline; font-size: 13.3333px; stroke-linecap: square; fill: rgb(0, 0, 0); fill-opacity: 1;"/></g></g></g></g></g></g></g></g></g></svg>

<svg fill="none" viewBox="0 0 24 24"><g class="frame-container-wrapper"><g class="frame-container-blur"><g class="frame-container-shadows"><g class="fills"><rect width="24" height="24" class="frame-background" rx="0" ry="0"/></g><g class="frame-children"><path fill="#000" d="M3.5593 7.889a.8.8 0 0 0-.4436.2265.8013.8013 0 0 0 0 1.1345l3.2496 3.248-3.2496 3.2503a.8016.8016 0 1 0 1.1365 1.131l3.2464-3.2482 3.2497 3.2482a.8027.8027 0 0 0 1.1314 0 .802.802 0 0 0 0-1.131l-3.248-3.2503 3.248-3.248a.8027.8027 0 0 0 .2353-.5675.8024.8024 0 0 0-.2353-.567.8027.8027 0 0 0-1.1314 0l-3.2497 3.2499-3.2464-3.25a.8006.8006 0 0 0-.6929-.2265Z" class="fills"/><path fill="#000" d="M17.4983 7.4221c-.5732 0-1.0906.112-1.5503.3377-.4558.2214-.8157.5273-1.0803.9182-.2649.3907-.396.8382-.396 1.3417h1.574c0-.2779.0647-.5174.195-.7167.13-.2044.3062-.3603.5276-.4686.2251-.1132.478-.168.7559-.168.3293 0 .6016.0586.8147.1756.2168.1174.3755.283.4797.5.109.2124.1643.4699.1643.7693 0 .2866-.058.5403-.1753.7619-.1171.2213-.298.3935-.5417.5194-.2388.126-.5398.1896-.904.1896h-.9378V12.8068h.9377c.3606 0 .6724.0553.9373.1678.2649.1085.468.2777.6118.508.143.2303.2151.5296.2151.8983 0 .3258-.0657.6038-.1956.834-.1264.23-.3083.4044-.5473.5214-.2388.1172-.5232.1758-.8535.1758-.3118 0-.5887-.0618-.8323-.1836-.238-.1212-.4253-.2873-.56-.4996-.1302-.2174-.1956-.4683-.1956-.7503h-1.5679c0 .4425.084.8334.254 1.172.1732.3339.4076.614.7028.8396.2954.2216.6286.3894 1.0022.502.3728.1131.7641.1703 1.1719.1703.4558 0 .8776-.0624 1.2631-.1836.3914-.1218.731-.3004 1.0215-.5393a2.4002 2.4002 0 0 0 .67-.873c.1606-.3474.2429-.7427.2429-1.1857 0-.3252-.0594-.633-.1765-.9237-.1126-.2906-.2933-.55-.5408-.7756-.2354-.2181-.5369-.3889-.9043-.5177.2834-.1291.5261-.286.7283-.4704.247-.2299.4345-.484.561-.7617.1255-.2779.187-.5514.187-.8205 0-.59-.1262-1.085-.3828-1.4842-.2554-.3994-.6138-.699-1.074-.8982-.4558-.2045-.9892-.3068-1.6018-.3068Z" class="fills" font-family="roboto" font-size="13.3333" font-weight="500" style="white-space:pre"/></g></g></g></g></svg>
